X: 9
T: Saddle The Pony
Z: Balázs
S: https://thesession.org/tunes/307#setting51876
R: jig
M: 6/8
L: 1/8
K: Gmaj
|: GBA G2 B|def gdB|GBA G2 B|AFD AFD|
GBA G2 B|def gfg|ege dBA|1 BGF G2D:|2 BGF G2d|
|:ege edB|def g2 g|ege edB|dBA ABd|
ege edB|def gfg|ege dBA|1 BGF G2d:|2 BGF G2|

%-------------------- TUNE SEPARATOR --------------------%

